X: 14059
T: MISS ANSON'S
C: Bob McQuillen 16 May'09
B: Bob's Note Book 14 #59
%R: reel
%D:2009
Z: 2020 John Chambers <jc:trillian.mit.edu>
M: C
L: 1/8
K: G
GA \
| BdBG D2GA | BGBd e2de | g2dg edBe | dBGB AGEG |
| BdBG D2GA | BGBd e2de | gedg edBG | A2G2 G2 :|
|: GA \
| B2dB ABGE | DGBG EDGA | B2GB dBGE | DEGA BABd |
| e2eg edBd | gedB AGED | GBdg egdc | B2G2 G2 :|
%%begintext align
%% When Laurie
%% Andres and I played for the Tacoma Dance, the
%% star of the evening was a cute twelve-year-old
%% girl named Emma Anson, and boy, could she dance!
%% It sure was fun watching you dance, Emma!
%%endtext

%%sep 1 1 500

%%sep 1 1 500

